images/default.svg

<?xml version="1.0" encoding="UTF-8"?>
<svg width="1664px" height="911px" viewBox="0 0 1664 911" version="1.1" xmlns="http://www.w3.org/2000/svg" xmlns:xlink="http://www.w3.org/1999/xlink">
    <!-- Generator: Sketch 62 (91390) - https://sketch.com -->
    <title>Untitled</title>
    <desc>Created with Sketch.</desc>
    <g id="Page-1" stroke="none" stroke-width="1" fill="none" fill-rule="evenodd">
        <rect id="Rectangle" fill="#EEEEEE" x="0" y="0" width="1664" height="911"></rect>
        <path d="M561.804688,475.929688 C570.502604,475.929688 576.934896,472.348958 581.101562,465.1875 C584.174479,459.875 585.710938,453.390625 585.710938,445.734375 C585.710938,442.713542 585.346354,439.536458 584.617188,436.203125 C583.888021,432.869792 582.520833,429.770833 580.515625,426.90625 C578.015625,423.364583 574.747396,420.929688 570.710938,419.601562 C568.341146,418.820312 565.372396,418.403646 561.804688,418.351562 L561.804688,418.351562 L537,418.351562 L537,475.929688 L561.804688,475.929688 Z M559.773438,465.929688 L548.679688,465.929688 L548.679688,428.351562 L559.773438,428.351562 C565.242188,428.351562 568.894531,429.920573 570.730469,433.058594 C572.566406,436.196615 573.484375,440.695312 573.484375,446.554688 C573.484375,450.799479 572.872396,454.458333 571.648438,457.53125 C569.408854,463.130208 565.450521,465.929688 559.773438,465.929688 L559.773438,465.929688 Z M601.74875,475.929688 L601.74875,455.578125 C601.74875,452.166667 602.178437,449.640625 603.037812,448 C604.574271,445.083333 607.582083,443.625 612.06125,443.625 C612.399792,443.625 612.8425,443.638021 613.389375,443.664062 C613.93625,443.690104 614.56125,443.742188 615.264375,443.820312 L615.264375,443.820312 L615.264375,432.414062 C614.769583,432.388021 614.450573,432.36849 614.307344,432.355469 C614.164115,432.342448 613.988333,432.335938 613.78,432.335938 C610.446667,432.335938 607.738333,433.208333 605.655,434.953125 C604.378958,435.994792 602.881562,437.934896 601.162812,440.773438 L601.162812,440.773438 L601.162812,433.351562 L590.537812,433.351562 L590.537812,475.929688 L601.74875,475.929688 Z M637.708437,477.414062 C645.026146,477.414062 650.481875,475.19401 654.075625,470.753906 C657.669375,466.313802 659.46625,460.96875 659.46625,454.71875 C659.46625,448.572917 657.669375,443.247396 654.075625,438.742188 C650.481875,434.236979 645.026146,431.984375 637.708437,431.984375 C630.390729,431.984375 624.935,434.236979 621.34125,438.742188 C617.7475,443.247396 615.950625,448.572917 615.950625,454.71875 C615.950625,460.96875 617.7475,466.313802 621.34125,470.753906 C624.935,475.19401 630.390729,477.414062 637.708437,477.414062 Z M637.669375,468.078125 C634.414167,468.078125 631.907656,466.919271 630.149844,464.601562 C628.392031,462.283854 627.513125,458.989583 627.513125,454.71875 C627.513125,450.447917 628.392031,447.160156 630.149844,444.855469 C631.907656,442.550781 634.414167,441.398438 637.669375,441.398438 C640.924583,441.398438 643.424583,442.550781 645.169375,444.855469 C646.914167,447.160156 647.786562,450.447917 647.786562,454.71875 C647.786562,458.989583 646.914167,462.283854 645.169375,464.601562 C643.424583,466.919271 640.924583,468.078125 637.669375,468.078125 Z M674.918125,492.6875 L674.918125,470.5 C676.09,472.296875 677.287917,473.664062 678.511875,474.601562 C680.751458,476.294271 683.563958,477.140625 686.949375,477.140625 C692.261875,477.140625 696.604323,475.174479 699.976719,471.242188 C703.349115,467.309896 705.035313,461.59375 705.035313,454.09375 C705.035313,446.984375 703.310052,441.59375 699.859531,437.921875 C696.40901,434.25 692.196771,432.414062 687.222813,432.414062 C683.811354,432.414062 680.868646,433.364583 678.394688,435.265625 C677.040521,436.333333 675.764479,437.791667 674.566563,439.640625 L674.566563,439.640625 L674.566563,433.351562 L663.9025,433.351562 L663.9025,492.6875 L674.918125,492.6875 Z M684.019688,467.804688 C681.884271,467.804688 680.035313,467.21875 678.472813,466.046875 C675.842604,464.041667 674.5275,460.565104 674.5275,455.617188 C674.5275,452.492188 674.918125,449.914062 675.699375,447.882812 C677.209792,444.054688 679.983229,442.140625 684.019688,442.140625 C687.379063,442.140625 689.807448,443.403646 691.304844,445.929688 C692.80224,448.455729 693.550938,451.359375 693.550938,454.640625 C693.550938,458.625 692.737135,461.815104 691.109531,464.210938 C689.481927,466.606771 687.118646,467.804688 684.019688,467.804688 Z M740.314062,428.273438 L740.314062,418 L729.025,418 L729.025,428.273438 L740.314062,428.273438 Z M740.314062,475.929688 L740.314062,433.351562 L729.025,433.351562 L729.025,475.929688 L740.314062,475.929688 Z M758.969063,475.929688 L758.969063,450.304688 C758.969063,447.986979 759.268542,446.242188 759.8675,445.070312 C760.96125,443.013021 763.096667,441.984375 766.27375,441.984375 C769.008125,441.984375 770.844063,443.013021 771.781563,445.070312 C772.302396,446.216146 772.562813,448.052083 772.562813,450.578125 L772.562813,450.578125 L772.562813,475.929688 L783.77375,475.929688 L783.77375,450.578125 C783.77375,448.677083 784.073229,447.049479 784.672188,445.695312 C785.844063,443.143229 787.966458,441.867188 791.039375,441.867188 C793.695625,441.867188 795.518542,442.856771 796.508125,444.835938 C797.028958,445.877604 797.289375,447.205729 797.289375,448.820312 L797.289375,448.820312 L797.289375,475.929688 L808.695625,475.929688 L808.77375,449.09375 C808.77375,446.333333 808.643542,444.236979 808.383125,442.804688 C807.966458,440.643229 807.159167,438.820312 805.96125,437.335938 C804.476875,435.513021 802.823229,434.236979 801.000313,433.507812 C799.177396,432.778646 797.328438,432.414062 795.453438,432.414062 C792.640938,432.414062 790.088854,433 787.797188,434.171875 C785.635729,435.34375 783.825833,437.179688 782.3675,439.679688 C781.534167,437.596354 780.310208,435.890625 778.695625,434.5625 C776.690417,433.130208 774.060208,432.414062 770.805,432.414062 C767.3675,432.414062 764.568021,433.247396 762.406563,434.914062 C761.182604,435.851562 759.880521,437.427083 758.500313,439.640625 L758.500313,439.640625 L758.500313,433.429688 L747.68,433.429688 L747.68,475.929688 L758.969063,475.929688 Z M826.217813,477.257812 C829.238646,477.257812 831.946979,476.567708 834.342813,475.1875 C836.348021,474.015625 838.118854,472.596354 839.655313,470.929688 C839.733438,471.893229 839.837604,472.752604 839.967813,473.507812 C840.098021,474.263021 840.332396,475.070312 840.670938,475.929688 L840.670938,475.929688 L852.780313,475.929688 L852.780313,474.289062 C852.051146,473.950521 851.504271,473.520833 851.139688,473 C850.775104,472.479167 850.55375,471.489583 850.475625,470.03125 C850.423542,468.104167 850.3975,466.463542 850.3975,465.109375 L850.3975,465.109375 L850.3975,445.578125 C850.3975,440.447917 848.587604,436.958333 844.967813,435.109375 C841.348021,433.260417 837.207396,432.335938 832.545938,432.335938 C825.384479,432.335938 820.332396,434.210938 817.389688,437.960938 C815.540729,440.356771 814.499063,443.416667 814.264688,447.140625 L814.264688,447.140625 L825.006875,447.140625 C825.267292,445.5 825.788125,444.197917 826.569375,443.234375 C827.663125,441.932292 829.525104,441.28125 832.155313,441.28125 C834.499063,441.28125 836.276406,441.613281 837.487344,442.277344 C838.698281,442.941406 839.30375,444.145833 839.30375,445.890625 C839.30375,447.322917 838.509479,448.377604 836.920938,449.054688 C836.035521,449.445312 834.564167,449.770833 832.506875,450.03125 L832.506875,450.03125 L828.717813,450.5 C824.420938,451.046875 821.165729,451.958333 818.952188,453.234375 C814.915729,455.578125 812.8975,459.367188 812.8975,464.601562 C812.8975,468.638021 814.15401,471.75651 816.667031,473.957031 C819.180052,476.157552 822.363646,477.257812 826.217813,477.257812 Z M829.499063,469.171875 C827.988646,469.171875 826.706094,468.748698 825.651406,467.902344 C824.596719,467.05599 824.069375,465.682292 824.069375,463.78125 C824.069375,461.645833 824.92875,460.070312 826.6475,459.054688 C827.663125,458.455729 829.342813,457.947917 831.686563,457.53125 L831.686563,457.53125 L834.186563,457.0625 C835.436563,456.828125 836.419635,456.574219 837.135781,456.300781 C837.851927,456.027344 838.561563,455.669271 839.264688,455.226562 L839.264688,455.226562 L839.264688,459.367188 C839.186563,463.091146 838.138385,465.65625 836.120156,467.0625 C834.101927,468.46875 831.894896,469.171875 829.499063,469.171875 Z M874.482188,493.351562 C883.492604,493.351562 889.586354,490.955729 892.763438,486.164062 C894.612396,483.377604 895.536875,479.236979 895.536875,473.742188 L895.536875,473.742188 L895.536875,433.351562 L884.716563,433.351562 L884.716563,439.484375 C883.049896,436.489583 880.862396,434.432292 878.154063,433.3125 C876.565521,432.661458 874.703542,432.335938 872.568125,432.335938 C866.786875,432.335938 862.320729,434.490885 859.169688,438.800781 C856.018646,443.110677 854.443125,448.429688 854.443125,454.757812 C854.443125,461.320312 856.07724,466.522135 859.345469,470.363281 C862.613698,474.204427 866.982188,476.125 872.450938,476.125 C875.992604,476.125 878.870208,475.278646 881.08375,473.585938 C882.307708,472.674479 883.453542,471.307292 884.52125,469.484375 L884.52125,469.484375 L884.52125,472.21875 C884.52125,476.28125 884.078542,479.171875 883.193125,480.890625 C881.838958,483.572917 879.156667,484.914062 875.14625,484.914062 C872.307708,484.914062 870.289479,484.40625 869.091563,483.390625 C868.388438,482.817708 867.880625,481.880208 867.568125,480.578125 L867.568125,480.578125 L855.45875,480.578125 C855.823333,484.822917 857.724375,488.013021 861.161875,490.148438 C864.599375,492.283854 869.039479,493.351562 874.482188,493.351562 Z M875.341563,466.789062 C871.435313,466.789062 868.726979,464.992188 867.216563,461.398438 C866.383229,459.471354 865.966563,457.270833 865.966563,454.796875 C865.966563,451.932292 866.357188,449.523438 867.138438,447.570312 C868.622813,443.898438 871.318125,442.0625 875.224375,442.0625 C878.088958,442.0625 880.374115,443.117188 882.079844,445.226562 C883.785573,447.335938 884.638438,450.408854 884.638438,454.445312 C884.638438,458.742188 883.74,461.873698 881.943125,463.839844 C880.14625,465.80599 877.945729,466.789062 875.341563,466.789062 Z M919.895,477.335938 C926.4575,477.335938 931.561667,475.265625 935.2075,471.125 C937.55125,468.520833 938.866354,465.955729 939.152812,463.429688 L939.152812,463.429688 L927.785625,463.429688 C927.186667,464.679688 926.496562,465.65625 925.715312,466.359375 C924.283021,467.661458 922.421042,468.3125 920.129375,468.3125 C917.967917,468.3125 916.118958,467.778646 914.5825,466.710938 C912.056458,464.992188 910.715312,461.997396 910.559062,457.726562 L910.559062,457.726562 L939.699687,457.726562 C939.751771,454.054688 939.634583,451.242188 939.348125,449.289062 C938.853333,445.955729 937.772604,443.026042 936.105937,440.5 C934.256979,437.635417 931.913229,435.539062 929.074687,434.210938 C926.236146,432.882812 923.046042,432.21875 919.504375,432.21875 C913.540833,432.21875 908.690573,434.184896 904.953594,438.117188 C901.216615,442.049479 899.348125,447.700521 899.348125,455.070312 C899.348125,462.934896 901.418437,468.611979 905.559062,472.101562 C909.699687,475.591146 914.478333,477.335938 919.895,477.335938 Z M928.137187,450.382812 L910.8325,450.382812 C911.197083,447.622396 912.08901,445.434896 913.508281,443.820312 C914.927552,442.205729 916.92625,441.398438 919.504375,441.398438 C921.874167,441.398438 923.859844,442.160156 925.461406,443.683594 C927.062969,445.207031 927.954896,447.440104 928.137187,450.382812 L928.137187,450.382812 Z M974.158125,475.929688 L974.158125,452.882812 C974.158125,449.236979 974.919844,446.43099 976.443281,444.464844 C977.966719,442.498698 980.199792,441.515625 983.1425,441.515625 C985.981042,441.515625 987.908125,442.505208 988.92375,444.484375 C989.705,445.890625 990.095625,447.739583 990.095625,450.03125 L990.095625,450.03125 L990.095625,475.929688 L1001.46281,475.929688 L1001.46281,450.929688 C1001.46281,447.127604 1001.3326,444.386719 1001.07219,442.707031 C1000.81177,441.027344 1000.09562,439.393229 998.92375,437.804688 C997.543542,435.929688 995.779219,434.536458 993.630781,433.625 C991.482344,432.713542 989.093021,432.257812 986.462812,432.257812 C984.119062,432.257812 981.88599,432.746094 979.763594,433.722656 C977.641198,434.699219 975.772708,436.424479 974.158125,438.898438 L974.158125,438.898438 L974.158125,418.546875 L963.064375,418.546875 L963.064375,475.929688 L974.158125,475.929688 Z M1025.82094,477.335938 C1032.38344,477.335938 1037.4876,475.265625 1041.13344,471.125 C1043.47719,468.520833 1044.79229,465.955729 1045.07875,463.429688 L1045.07875,463.429688 L1033.71156,463.429688 C1033.1126,464.679688 1032.4225,465.65625 1031.64125,466.359375 C1030.20896,467.661458 1028.34698,468.3125 1026.05531,468.3125 C1023.89385,468.3125 1022.0449,467.778646 1020.50844,466.710938 C1017.9824,464.992188 1016.64125,461.997396 1016.485,457.726562 L1016.485,457.726562 L1045.62562,457.726562 C1045.67771,454.054688 1045.56052,451.242188 1045.27406,449.289062 C1044.77927,445.955729 1043.69854,443.026042 1042.03187,440.5 C1040.18292,437.635417 1037.83917,435.539062 1035.00062,434.210938 C1032.16208,432.882812 1028.97198,432.21875 1025.43031,432.21875 C1019.46677,432.21875 1014.61651,434.184896 1010.87953,438.117188 C1007.14255,442.049479 1005.27406,447.700521 1005.27406,455.070312 C1005.27406,462.934896 1007.34437,468.611979 1011.485,472.101562 C1015.62562,475.591146 1020.40427,477.335938 1025.82094,477.335938 Z M1034.06312,450.382812 L1016.75844,450.382812 C1017.12302,447.622396 1018.01495,445.434896 1019.43422,443.820312 C1020.85349,442.205729 1022.85219,441.398438 1025.43031,441.398438 C1027.8001,441.398438 1029.78578,442.160156 1031.38734,443.683594 C1032.98891,445.207031 1033.88083,447.440104 1034.06312,450.382812 L1034.06312,450.382812 Z M1060.99937,475.929688 L1060.99937,455.578125 C1060.99937,452.166667 1061.42906,449.640625 1062.28844,448 C1063.8249,445.083333 1066.83271,443.625 1071.31187,443.625 C1071.65042,443.625 1072.09312,443.638021 1072.64,443.664062 C1073.18687,443.690104 1073.81187,443.742188 1074.515,443.820312 L1074.515,443.820312 L1074.515,432.414062 C1074.02021,432.388021 1073.7012,432.36849 1073.55797,432.355469 C1073.41474,432.342448 1073.23896,432.335938 1073.03062,432.335938 C1069.69729,432.335938 1066.98896,433.208333 1064.90562,434.953125 C1063.62958,435.994792 1062.13219,437.934896 1060.41344,440.773438 L1060.41344,440.773438 L1060.41344,433.351562 L1049.78844,433.351562 L1049.78844,475.929688 L1060.99937,475.929688 Z M1095.00594,477.335938 C1101.56844,477.335938 1106.6726,475.265625 1110.31844,471.125 C1112.66219,468.520833 1113.97729,465.955729 1114.26375,463.429688 L1114.26375,463.429688 L1102.89656,463.429688 C1102.2976,464.679688 1101.6075,465.65625 1100.82625,466.359375 C1099.39396,467.661458 1097.53198,468.3125 1095.24031,468.3125 C1093.07885,468.3125 1091.2299,467.778646 1089.69344,466.710938 C1087.1674,464.992188 1085.82625,461.997396 1085.67,457.726562 L1085.67,457.726562 L1114.81062,457.726562 C1114.86271,454.054688 1114.74552,451.242188 1114.45906,449.289062 C1113.96427,445.955729 1112.88354,443.026042 1111.21687,440.5 C1109.36792,437.635417 1107.02417,435.539062 1104.18562,434.210938 C1101.34708,432.882812 1098.15698,432.21875 1094.61531,432.21875 C1088.65177,432.21875 1083.80151,434.184896 1080.06453,438.117188 C1076.32755,442.049479 1074.45906,447.700521 1074.45906,455.070312 C1074.45906,462.934896 1076.52937,468.611979 1080.67,472.101562 C1084.81062,475.591146 1089.58927,477.335938 1095.00594,477.335938 Z M1103.24812,450.382812 L1085.94344,450.382812 C1086.30802,447.622396 1087.19995,445.434896 1088.61922,443.820312 C1090.03849,442.205729 1092.03719,441.398438 1094.61531,441.398438 C1096.9851,441.398438 1098.97078,442.160156 1100.57234,443.683594 C1102.17391,445.207031 1103.06583,447.440104 1103.24812,450.382812 L1103.24812,450.382812 Z M1130.73125,475.929688 L1130.73125,464.289062 L1118.89531,464.289062 L1118.89531,475.929688 L1130.73125,475.929688 Z" id="Dropimagehere." fill="#AEAEAE" fill-rule="nonzero"></path>
    </g>
</svg>

<svg width="1664" height="911" xmlns="http://www.w3.org/2000/svg"><g fill="none" fill-rule="evenodd"><path fill="#EEE" d="M0 0h1664v911H0z"/><path d="M561.805 475.93c8.698 0 15.13-3.581 19.297-10.743 3.072-5.312 4.609-11.796 4.609-19.453 0-3.02-.365-6.198-1.094-9.53-.729-3.334-2.096-6.433-4.101-9.298-2.5-3.541-5.769-5.976-9.805-7.304-2.37-.782-5.339-1.198-8.906-1.25H537v57.578h24.805zm-2.032-10H548.68v-37.578h11.093c5.47 0 9.122 1.569 10.957 4.707 1.836 3.138 2.754 7.636 2.754 13.496 0 4.244-.612 7.903-1.836 10.976-2.24 5.6-6.197 8.399-11.875 8.399zm41.976 10v-20.352c0-3.411.43-5.937 1.289-7.578 1.536-2.917 4.544-4.375 9.023-4.375a29.157 29.157 0 013.203.195v-11.406a33.373 33.373 0 01-.957-.059 5.971 5.971 0 00-.527-.02c-3.333 0-6.042.873-8.125 2.618-1.276 1.042-2.773 2.982-4.492 5.82v-7.421h-10.625v42.578h11.21zm35.96 1.484c7.317 0 12.773-2.22 16.367-6.66 3.593-4.44 5.39-9.785 5.39-16.035 0-6.146-1.797-11.472-5.39-15.977-3.594-4.505-9.05-6.758-16.368-6.758-7.317 0-12.773 2.253-16.367 6.758-3.594 4.505-5.39 9.83-5.39 15.977 0 6.25 1.796 11.595 5.39 16.035 3.594 4.44 9.05 6.66 16.367 6.66zm-.04-9.336c-3.255 0-5.761-1.159-7.52-3.476-1.757-2.318-2.636-5.612-2.636-9.883 0-4.271.879-7.559 2.637-9.864 1.758-2.304 4.264-3.457 7.52-3.457 3.255 0 5.755 1.153 7.5 3.457 1.744 2.305 2.617 5.593 2.617 9.864 0 4.27-.873 7.565-2.618 9.883-1.744 2.317-4.244 3.476-7.5 3.476zm37.25 24.61V470.5c1.171 1.797 2.369 3.164 3.593 4.102 2.24 1.692 5.052 2.539 8.437 2.539 5.313 0 9.655-1.967 13.028-5.899 3.372-3.932 5.058-9.648 5.058-17.148 0-7.11-1.725-12.5-5.175-16.172-3.451-3.672-7.663-5.508-12.637-5.508-3.412 0-6.354.95-8.828 2.852-1.354 1.067-2.63 2.526-3.828 4.375v-6.29h-10.664v59.337h11.015zm9.1-24.883c-2.135 0-3.984-.586-5.546-1.758-2.63-2.005-3.945-5.482-3.945-10.43 0-3.125.39-5.703 1.171-7.734 1.51-3.828 4.284-5.742 8.32-5.742 3.36 0 5.788 1.263 7.286 3.789 1.497 2.526 2.246 5.43 2.246 8.71 0 3.985-.814 7.175-2.441 9.57-1.628 2.397-3.991 3.595-7.09 3.595zm56.295-39.532V418h-11.289v10.273h11.29zm0 47.657v-42.578h-11.289v42.578h11.29zm18.655 0v-25.625c0-2.318.3-4.063.898-5.235 1.094-2.057 3.23-3.086 6.407-3.086 2.734 0 4.57 1.029 5.508 3.086.52 1.146.78 2.982.78 5.508v25.352h11.212v-25.352c0-1.9.3-3.529.898-4.883 1.172-2.552 3.294-3.828 6.367-3.828 2.657 0 4.48.99 5.47 2.969.52 1.042.78 2.37.78 3.984v27.11h11.407l.078-26.836c0-2.76-.13-4.857-.39-6.29-.418-2.16-1.225-3.984-2.423-5.468-1.484-1.823-3.138-3.099-4.96-3.828-1.824-.73-3.673-1.094-5.548-1.094-2.812 0-5.364.586-7.656 1.758-2.161 1.172-3.971 3.008-5.43 5.508-.833-2.084-2.057-3.79-3.671-5.118-2.006-1.432-4.636-2.148-7.891-2.148-3.438 0-6.237.833-8.398 2.5-1.224.938-2.526 2.513-3.907 4.727v-6.211h-10.82v42.5h11.29zm67.249 1.328c3.02 0 5.729-.69 8.125-2.07a22.873 22.873 0 005.312-4.258c.078.963.183 1.823.313 2.578a12.4 12.4 0 00.703 2.422h12.11v-1.64c-.73-.34-1.277-.77-1.641-1.29-.365-.52-.586-1.51-.664-2.969a186.48 186.48 0 01-.078-4.922v-19.53c0-5.131-1.81-8.62-5.43-10.47-3.62-1.849-7.76-2.773-12.422-2.773-7.162 0-12.214 1.875-15.156 5.625-1.85 2.396-2.89 5.456-3.125 9.18h10.742c.26-1.641.781-2.943 1.562-3.907 1.094-1.302 2.956-1.953 5.586-1.953 2.344 0 4.121.332 5.332.996 1.211.664 1.817 1.869 1.817 3.614 0 1.432-.795 2.487-2.383 3.164-.885.39-2.357.716-4.414.976l-3.79.469c-4.296.547-7.551 1.458-9.765 2.734-4.036 2.344-6.054 6.133-6.054 11.368 0 4.036 1.256 7.155 3.769 9.355s5.697 3.3 9.55 3.3zm3.281-8.086c-1.51 0-2.793-.423-3.848-1.27-1.054-.846-1.582-2.22-1.582-4.12 0-2.136.86-3.712 2.579-4.727 1.015-.6 2.695-1.107 5.039-1.524l2.5-.469c1.25-.234 2.233-.488 2.949-.761a12.098 12.098 0 002.129-1.074v4.14c-.078 3.724-1.127 6.29-3.145 7.695-2.018 1.407-4.225 2.11-6.62 2.11zm44.983 24.18c9.01 0 15.104-2.396 18.281-7.188 1.85-2.786 2.774-6.927 2.774-12.422v-40.39h-10.82v6.132c-1.667-2.994-3.855-5.052-6.563-6.171-1.588-.652-3.45-.977-5.586-.977-5.781 0-10.247 2.155-13.398 6.465-3.151 4.31-4.727 9.629-4.727 15.957 0 6.562 1.634 11.764 4.902 15.605 3.269 3.841 7.637 5.762 13.106 5.762 3.542 0 6.42-.846 8.633-2.54 1.224-.91 2.37-2.278 3.437-4.1v2.734c0 4.062-.442 6.953-1.328 8.672-1.354 2.682-4.036 4.023-8.047 4.023-2.838 0-4.857-.508-6.054-1.523-.704-.573-1.211-1.51-1.524-2.813h-12.11c.365 4.245 2.266 7.435 5.704 9.57 3.437 2.136 7.877 3.204 13.32 3.204zm.86-26.563c-3.907 0-6.615-1.797-8.125-5.39-.834-1.928-1.25-4.128-1.25-6.602 0-2.865.39-5.274 1.171-7.227 1.485-3.672 4.18-5.507 8.086-5.507 2.865 0 5.15 1.054 6.856 3.164 1.706 2.109 2.558 5.182 2.558 9.218 0 4.297-.898 7.429-2.695 9.395-1.797 1.966-3.997 2.95-6.601 2.95zm44.553 10.547c6.563 0 11.667-2.07 15.313-6.211 2.343-2.604 3.658-5.17 3.945-7.695h-11.367c-.6 1.25-1.29 2.226-2.07 2.93-1.433 1.301-3.295 1.952-5.587 1.952-2.161 0-4.01-.533-5.547-1.601-2.526-1.719-3.867-4.714-4.023-8.984h29.14c.053-3.672-.064-6.485-.35-8.438-.496-3.333-1.576-6.263-3.243-8.789-1.849-2.865-4.193-4.96-7.031-6.29-2.839-1.327-6.029-1.991-9.57-1.991-5.964 0-10.814 1.966-14.551 5.898-3.737 3.932-5.606 9.584-5.606 16.953 0 7.865 2.07 13.542 6.211 17.032 4.14 3.49 8.92 5.234 14.336 5.234zm8.242-26.953h-17.304c.364-2.76 1.256-4.948 2.675-6.563 1.42-1.614 3.418-2.422 5.996-2.422 2.37 0 4.356.762 5.957 2.286 1.602 1.523 2.494 3.756 2.676 6.699zm46.021 25.547v-23.047c0-3.646.762-6.452 2.285-8.418 1.524-1.966 3.757-2.95 6.7-2.95 2.838 0 4.765.99 5.78 2.97.782 1.406 1.173 3.255 1.173 5.546v25.899h11.367v-25c0-3.802-.13-6.543-.39-8.223-.261-1.68-.977-3.314-2.15-4.902a12.535 12.535 0 00-5.292-4.18c-2.149-.911-4.538-1.367-7.168-1.367-2.344 0-4.577.488-6.7 1.465-2.122.976-3.99 2.701-5.605 5.175v-20.351h-11.094v57.383h11.094zm51.663 1.406c6.562 0 11.667-2.07 15.312-6.211 2.344-2.604 3.66-5.17 3.946-7.695h-11.367c-.6 1.25-1.29 2.226-2.07 2.93-1.433 1.301-3.295 1.952-5.587 1.952-2.161 0-4.01-.533-5.547-1.601-2.526-1.719-3.867-4.714-4.023-8.984h29.14c.053-3.672-.064-6.485-.35-8.438-.496-3.333-1.576-6.263-3.243-8.789-1.85-2.865-4.193-4.96-7.031-6.29-2.839-1.327-6.029-1.991-9.57-1.991-5.964 0-10.814 1.966-14.551 5.898-3.737 3.932-5.606 9.584-5.606 16.953 0 7.865 2.07 13.542 6.211 17.032 4.14 3.49 8.92 5.234 14.336 5.234zm8.242-26.953h-17.305c.365-2.76 1.257-4.948 2.676-6.563 1.42-1.614 3.418-2.422 5.996-2.422 2.37 0 4.356.762 5.957 2.286 1.602 1.523 2.494 3.756 2.676 6.699zM1061 475.93v-20.352c0-3.411.43-5.937 1.29-7.578 1.536-2.917 4.544-4.375 9.023-4.375a29.157 29.157 0 013.203.195v-11.406a33.373 33.373 0 01-.957-.059 5.971 5.971 0 00-.527-.02c-3.334 0-6.042.873-8.125 2.618-1.276 1.042-2.774 2.982-4.493 5.82v-7.421h-10.625v42.578H1061zm34.007 1.406c6.562 0 11.667-2.07 15.312-6.211 2.344-2.604 3.66-5.17 3.946-7.695h-11.367c-.6 1.25-1.29 2.226-2.07 2.93-1.433 1.301-3.295 1.952-5.587 1.952-2.161 0-4.01-.533-5.547-1.601-2.526-1.719-3.867-4.714-4.023-8.984h29.14c.053-3.672-.064-6.485-.35-8.438-.496-3.333-1.576-6.263-3.243-8.789-1.85-2.865-4.193-4.96-7.031-6.29-2.839-1.327-6.029-1.991-9.57-1.991-5.964 0-10.814 1.966-14.551 5.898-3.737 3.932-5.606 9.584-5.606 16.953 0 7.865 2.07 13.542 6.211 17.032 4.14 3.49 8.92 5.234 14.336 5.234zm8.242-26.953h-17.305c.365-2.76 1.257-4.948 2.676-6.563 1.42-1.614 3.418-2.422 5.996-2.422 2.37 0 4.356.762 5.957 2.286 1.602 1.523 2.494 3.756 2.676 6.699zm27.483 25.547v-11.64h-11.836v11.64h11.836z" fill="#AEAEAE" fill-rule="nonzero"/></g></svg>
